src/components/CasumoAvatar/sensei-avatar.svg

<svg viewBox="0 0 50 52" fill="none" xmlns="http://www.w3.org/2000/svg">
    <path fill-rule="evenodd" clip-rule="evenodd" d="M9.13044 18.2498L11.636 10.44L17.3639 8.77051L36.4547 9.46612L40.2725 13.5101L39.7274 18.2498L43.4104 22.941L44.2603 36.9996L38.3636 42.299L37.3193 48.5595L32.6363 50.3681L28.1119 45.0815L21.0293 44.4988L18.3152 49.8116L13.5449 49.2552L10.8303 44.4994L9.72708 39.6557L7.27989 37.9862L4.88086 26.7173L7.27989 20.1246L9.13044 18.2498Z" fill="white"/>
    <path fill-rule="evenodd" clip-rule="evenodd" d="M33.5909 10.7502C36.2267 10.7502 38.364 12.8487 38.364 15.4375V20.4693C40.5829 21.2445 42.1818 23.3041 42.1818 25.7498C42.1818 26.9135 42.1818 34.1679 42.1818 35.125C42.1818 37.1957 40.4724 38.8747 38.364 38.8747C38.3311 38.8747 38.3011 38.8663 38.2682 38.8658C38.0348 40.0082 37.3679 40.9888 36.4545 41.666V45.4373C36.4545 46.9905 35.1729 48.2498 33.5909 48.2498C32.0095 48.2498 30.7272 46.9905 30.7272 45.4373V42.6248C28.4024 42.6248 21.598 42.6248 19.2732 42.6248V45.4373C19.2732 46.9905 17.991 48.2498 16.4095 48.2498C14.8276 48.2498 13.5459 46.9905 13.5459 45.4373V41.666C12.6325 40.9888 11.9656 40.0082 11.7316 38.8658C11.6993 38.8663 11.6693 38.8747 11.6364 38.8747C9.5275 38.8747 7.8186 37.1957 7.8186 35.125C7.8186 34.1679 7.8186 26.9135 7.8186 25.7498C7.8186 23.3041 9.41701 21.2445 11.6364 20.4693V15.4375C11.6364 12.8487 13.7731 10.7502 16.4095 10.7502C19.0449 10.7502 30.955 10.7502 33.5909 10.7502ZM33.5907 7H16.4093C11.6725 7 7.81839 10.7852 7.81839 15.4375V18.275C5.46129 20.0141 4 22.767 4 25.7498V35.125C4 38.3421 6.07379 41.0934 8.97711 42.1557C9.19808 42.528 9.44909 42.8841 9.7273 43.2208V45.4373C9.7273 49.0562 12.7247 52 16.4093 52C19.7693 52 22.5582 49.5509 23.0228 46.375H26.9772C27.4418 49.5509 30.2307 52 33.5907 52C37.2753 52 40.2727 49.0562 40.2727 45.4373V43.2208C40.5509 42.8841 40.8019 42.5285 41.0229 42.1557C43.9262 41.0934 46 38.3421 46 35.125V25.7498C46 22.767 44.5387 20.0141 42.1816 18.275V15.4375C42.1816 10.7852 38.3275 7 33.5907 7Z" fill="#303838"/>
    <path fill-rule="evenodd" clip-rule="evenodd" d="M19.2729 16.3748C19.2729 17.4104 18.4185 18.2502 17.364 18.2502C16.3095 18.2502 15.4551 17.4104 15.4551 16.3748C15.4551 15.3397 16.3095 14.5 17.364 14.5C18.4185 14.5 19.2729 15.3397 19.2729 16.3748Z" fill="#303838"/>
    <path fill-rule="evenodd" clip-rule="evenodd" d="M34.5454 16.3748C34.5454 17.4104 33.6904 18.2502 32.636 18.2502C31.5821 18.2502 30.7271 17.4104 30.7271 16.3748C30.7271 15.3397 31.5821 14.5 32.636 14.5C33.6904 14.5 34.5454 15.3397 34.5454 16.3748Z" fill="#303838"/>
    <path d="M10.8478 16H4.38149C4.2786 16 4.24278 15.8633 4.33244 15.8129L25.267 4.02804C25.2978 4.01066 25.3356 4.01091 25.3662 4.02868L45.6786 15.8135C45.767 15.8648 45.7306 16 45.6284 16H39.1522" stroke="#303838" stroke-width="8"/>
    <path d="M4.33244 15.8129L25.267 4.02804C25.2978 4.01066 25.3356 4.01091 25.3662 4.02868L45.6786 15.8135C45.767 15.8648 45.7306 16 45.6284 16H39.1522H25H10.8478H4.38149C4.2786 16 4.24278 15.8633 4.33244 15.8129Z" fill="#C18156"/>
    <path fill-rule="evenodd" clip-rule="evenodd" d="M11.636 44.4998C10.5821 44.4998 9.72705 43.6606 9.72705 42.625V27.6248C9.72705 26.5897 10.5821 25.75 11.636 25.75C12.6904 25.75 13.5454 26.5897 13.5454 27.6248V42.625C13.5454 43.6606 12.6904 44.4998 11.636 44.4998Z" fill="#303838"/>
    <path fill-rule="evenodd" clip-rule="evenodd" d="M38.364 44.4998C37.3095 44.4998 36.4551 43.6606 36.4551 42.625V27.6248C36.4551 26.5897 37.3095 25.75 38.364 25.75C39.4185 25.75 40.2729 26.5897 40.2729 27.6248V42.625C40.2729 43.6606 39.4185 44.4998 38.364 44.4998Z" fill="#303838"/>
    <circle cx="25.25" cy="22.25" r="2.25" fill="#303838"/>
    <path d="M17.0151 23.1079C17.0154 26.1925 17.0153 34.4865 17.0152 40.1955C17.0152 40.8073 17.9033 40.8809 18.0079 40.2782L20.6063 25.3017C20.7725 24.3433 21.6042 23.6436 22.5768 23.6436H27.7501C28.7333 23.6436 29.5707 24.3582 29.7252 25.3292L32.0214 39.7563C32.1182 40.3647 33.0151 40.295 33.0151 39.679V23.1079C33.0151 19.3458 29.9548 19.0127 25.2576 19.0127C20.5603 19.0127 17.0148 19.1521 17.0151 23.1079Z" fill="#AAB8B8"/>
</svg>

<svg xmlns="http://www.w3.org/2000/svg" width="50" height="52" viewBox="0 0 50 52" fill="none">
    <path fill="#fff" fill-rule="evenodd" d="M9.13 18.25l2.506-7.81 5.728-1.67 19.09.696 3.819 4.044-.546 4.74 3.683 4.691L44.26 37l-5.896 5.299-1.045 6.26-4.683 1.81-4.524-5.288-7.083-.582-2.714 5.313-4.77-.557L10.83 44.5l-1.103-4.843-2.447-1.67-2.4-11.269 2.4-6.592 1.85-1.875z" clip-rule="evenodd"/>
    <path fill="#3B038E" fill-rule="evenodd" d="M33.59 10.75c2.637 0 4.774 2.099 4.774 4.688v5.031c2.219.775 3.818 2.835 3.818 5.28v9.376c0 2.07-1.71 3.75-3.818 3.75-.033 0-.063-.009-.096-.01-.233 1.143-.9 2.124-1.813 2.801v3.771c0 1.553-1.282 2.813-2.864 2.813-1.581 0-2.864-1.26-2.864-2.813v-2.812H19.273v2.812c0 1.553-1.282 2.813-2.863 2.813-1.582 0-2.864-1.26-2.864-2.813v-3.771c-.913-.677-1.58-1.658-1.814-2.8-.033 0-.063.009-.096.009-2.108 0-3.817-1.68-3.817-3.75V25.75c0-2.446 1.598-4.506 3.817-5.28v-5.032c0-2.59 2.137-4.688 4.774-4.688h17.18zm0-3.75H16.41c-4.738 0-8.592 3.785-8.592 8.438v2.837C5.461 20.015 4 22.767 4 25.75v9.375c0 3.217 2.074 5.968 4.977 7.03.221.373.472.73.75 1.066v2.216c0 3.62 2.998 6.563 6.682 6.563 3.36 0 6.15-2.45 6.614-5.625h3.954C27.442 49.551 30.231 52 33.591 52c3.684 0 6.682-2.944 6.682-6.563v-2.216c.278-.337.529-.692.75-1.065C43.926 41.093 46 38.342 46 35.125V25.75c0-2.983-1.461-5.736-3.818-7.475v-2.837C42.182 10.785 38.327 7 33.59 7z" clip-rule="evenodd"/>
    <path fill="#1A212C" fill-rule="evenodd" d="M19.273 16.375c0 1.035-.854 1.875-1.909 1.875-1.055 0-1.909-.84-1.909-1.875 0-1.035.854-1.875 1.909-1.875 1.055 0 1.909.84 1.909 1.875zM34.545 16.375c0 1.035-.855 1.875-1.909 1.875s-1.909-.84-1.909-1.875c0-1.035.855-1.875 1.909-1.875s1.91.84 1.91 1.875z" clip-rule="evenodd"/>
    <path fill="#3B038E" fill-rule="evenodd" d="M25.287 8.607l-14.44 8.128V20H4.382c-4.212 0-5.692-5.601-2.01-7.673h.001L23.302.543h.001l.002-.002a4.1 4.1 0 0 1 4.069.027l20.312 11.785C51.311 14.458 49.817 20 45.628 20h-6.476v-3.349L25.287 8.607z" clip-rule="evenodd"/>
    <path fill="#0CD0CD" d="M4.332 15.813L25.267 4.028a.1.1 0 0 1 .1 0l20.312 11.786c.088.05.052.186-.05.186H4.38c-.102 0-.138-.137-.049-.187z"/>
    <path fill="#3B038E" fill-rule="evenodd" d="M11.636 44.5c-1.054 0-1.909-.84-1.909-1.875v-15c0-1.035.855-1.875 1.909-1.875s1.91.84 1.91 1.875v15c0 1.036-.856 1.875-1.91 1.875zM38.364 44.5c-1.054 0-1.909-.84-1.909-1.875v-15c0-1.035.855-1.875 1.909-1.875 1.055 0 1.909.84 1.909 1.875v15c0 1.036-.855 1.875-1.909 1.875z" clip-rule="evenodd"/>
    <path fill="#1A212C" d="M25.25 24.5a2.25 2.25 0 1 0 0-4.5 2.25 2.25 0 0 0 0 4.5z"/>
    <path fill="#D3D8E1" d="M17.015 23.108v17.088c0 .611.888.685.993.082l2.598-14.976a2 2 0 0 1 1.97-1.658h5.174a2 2 0 0 1 1.975 1.685l2.296 14.427c.097.609.994.539.994-.077V23.108c0-3.762-3.06-4.095-7.757-4.095-4.698 0-8.243.14-8.243 4.095z"/>
</svg>
